X: 33
T: 30. QUADRILLE
B: Sam Bayard, "Hill Country Tunes" 1944 #30
S: Played by Mrs Sarah Armstrong, (near) Derry, PA, Nov 18 1943.
N: In bar 12 the g was g2; this was probably an error.
R: jig
M: 6/8
L: 1/8
Z: 2010 John Chambers <jc:trillian.mit.edu>
K: D
A- |\
A2A F2A | def edB A2A F2"a."G | ABA GFE |
D2D F2A | def edB | A2A F2G | ABc "fine"d2|| e |
f2d A2d | fef a^/gf | e2c A2c | ece a2^/g |
f2d A2d | fef a^/gf | ef^/g a2c | d2z d"D.C."cB |]
P: VAR:
"a."a |] y6 y6 y6 y6 y6 y6 y6 y6

%%sep 2 1 500
%%sep 1 1 500

